!!!!SEGMENT: pl-wtm--r-1590_stefani-jozef--jak-goniec-leci-przede-mna.krn
!!!cenid: 18xx:2355
!!!COM: Stefani, Józef
!!!COM-rismid: pe30024097
!!!CDT: 1800/04/16-1876/03/19
!!!CNT: Polish
!!!OTL: Jak goniec leci przede mną
!!!PDT:
!!!AGN:
!!!SMS-siglum: PL-Wtm
!!!SMS-shelfmark: R 1590
!!!SMS-shelfwork: W
!!!SMS-variant:
!!!SMS-altvar:
!!!NIFC-rismid: 1001115611
!!!URL-scan: http://repozytorium.nifc.pl/skany/pl-wtm-nut--r1590
!!!ONB-nifc:
!!!OMD: Maestoso.
!!!AIN: 1 alto 1 empty 1 organ 1 soprn 1 tenor
!!!key:
**kern	**kern	**kern	**text	**dynam	**kern	**text	**dynam	**kern	**text	**dynam	**kern	**text	**dynam
*part5	*part5	*part4	*part4	*part4	*part3	*part3	*part3	*part2	*part2	*part2	*part1	*part1	*part1
*staff6	*staff5	*staff4	*staff4	*	*staff3	*staff3	*	*staff2	*staff2	*	*staff1	*staff1	*
*Iorgan	*Iorgan	*Iempty	*	*	*Itenor	*	*	*Ialto	*	*	*Isoprn	*	*
*I"[Organo]	*I"[Organo]	*I"[Basſo]	*	*	*I"[Tenore]	*	*	*I"[Alto]	*	*	*I"[Soprano]	*	*
*clefF4	*clefG2	*clefF4	*	*	*clefC4	*	*	*clefG2	*	*	*clefG2	*	*
*k[b-]	*k[b-]	*k[b-]	*	*	*k[b-]	*	*	*k[b-]	*	*	*k[b-]	*	*
*d:	*d:	*d:	*	*	*d:	*	*	*d:	*	*	*d:	*	*
*M4/4	*M4/4	*M4/4	*	*	*M4/4	*	*	*M4/4	*	*	*M4/4	*	*
*met(c)	*met(c)	*met(c)	*	*	*met(c)	*	*	*met(c)	*	*	*met(c)	*	*
*all\right	*all\right	*all\right	*	*	*all\right	*	*	*all\right	*	*	*all\right	*	*
8.B-\L	8.b-/L	4ryy	.	.	4ryy	.	.	4ryy	.	.	4ryy	.	.
16A\Jk	16a/Jk	.	.	.	.	.	.	.	.	.	.	.	.
=1	=1	=1	=1	=1	=1	=1	=1	=1	=1	=1	=1	=1	=1
*2\right	*2\right	*	*	*	*	*	*	*	*	*	*	*	*
2d 2D\	2ff 2a 2f\	1ryy	.	.	1ryy	.	.	1ryy	.	.	1ryy	.	.
4A 4AA\	4cc#X 4g 4e/	.	.	.	.	.	.	.	.	.	.	.	.
4B- 4BB-\	4dd 4f 4d/	.	.	.	.	.	.	.	.	.	.	.	.
=2	=2	=2	=2	=2	=2	=2	=2	=2	=2	=2	=2	=2	=2
*	*^	*	*	*	*	*	*	*	*	*	*	*	*
2E 2EE/	4.ccn/	2g 2c\	1ryy	.	.	1ryy	.	.	1ryy	.	.	1ryy	.	.
.	8b-/	.	.	.	.	.	.	.	.	.	.	.	.	.
4F 4FF\	4a 4f 4c/	2ryy	.	.	.	.	.	.	.	.	.	.	.	.
4G 4GG\	4g 4e 4B-/	.	.	.	.	.	.	.	.	.	.	.	.	.
*	*v	*v	*	*	*	*	*	*	*	*	*	*	*	*
=3	=3	=3	=3	=3	=3	=3	=3	=3	=3	=3	=3	=3	=3
2A 2AA\	1f 1d	1ryy	.	.	1ryy	.	.	1ryy	.	.	1ryy	.	.
4F 4FF/	.	.	.	.	.	.	.	.	.	.	.	.	.
4D 4DD/	.	.	.	.	.	.	.	.	.	.	.	.	.
=4	=4	=4	=4	=4	=4	=4	=4	=4	=4	=4	=4	=4	=4
2A 2AA\	2e 2d/	1ryy	.	.	1ryy	.	.	1ryy	.	.	1ryy	.	.
4A 4AA\	4e 4c#X/	.	.	.	.	.	.	.	.	.	.	.	.
4A 4AA\	4a 4e 4c#/	.	.	.	.	.	.	.	.	.	.	.	.
!!LO:LB:g=original
=5	=5	=5	=5	=5	=5	=5	=5	=5	=5	=5	=5	=5	=5
4D/	(>4f 4d 4A/	1ryy	.	.	1ryy	.	.	1ryy	.	.	1ryy	.	.
4C/	4f#X 4e-X 4A/	.	.	.	.	.	.	.	.	.	.	.	.
4BB-/	4g 4d 4G/	.	.	.	.	.	.	.	.	.	.	.	.
4F#X 4FF#X/	4a 4d/	.	.	.	.	.	.	.	.	.	.	.	.
=6	=6	=6	=6	=6	=6	=6	=6	=6	=6	=6	=6	=6	=6
2G 2GG\	2b- 2g 2d/	1ryy	.	.	1ryy	.	.	1ryy	.	.	1ryy	.	.
4A 4AA\	4a 4f 4d/)	.	.	.	.	.	.	.	.	.	.	.	.
4B- 4BB-\	4g#X 4f 4d/	.	.	.	.	.	.	.	.	.	.	.	.
=7	=7	=7	=7	=7	=7	=7	=7	=7	=7	=7	=7	=7	=7
*^	*^	*	*	*	*	*	*	*	*	*	*	*	*
2.A\	2.AA\	4a 4f 4d/	4ryy	1ryy	.	.	1ryy	.	.	1ryy	.	.	1ryy	.	.
.	.	4f 4d/	2d\	.	.	.	.	.	.	.	.	.	.	.	.
.	.	4e/	.	.	.	.	.	.	.	.	.	.	.	.	.
4AA/	4AA\	4a 4c#X/	4ryy	.	.	.	.	.	.	.	.	.	.	.	.
*v	*v	*	*	*	*	*	*	*	*	*	*	*	*	*	*
*	*v	*v	*	*	*	*	*	*	*	*	*	*	*	*
=	=	=	=	=	=	=	=	=	=	=	=	=	=
2.D\	2.d/	2ryy	.	.	2ryy	.	.	2ryy	.	.	2ryy	.	.
!	!LO:TX:b:t=V&colon; S&colon;	!	!	!	!	!	!	!	!	!	!	!	!
.	.	4ryy	.	.	4ryy	.	.	4ryy	.	.	4ryy	.	.
!!LO:PB:g=original
=8||	=8||	=8||	=8||	=8||	=8||	=8||	=8||	=8||	=8||	=8||	=8||	=8||	=8||
!	!	!	!	!	!	!	!	!	!	!	!	!	!LO:DY:rj
4r	4a 4f/	4r	.	.	4r	.	.	4f/	Jak	.	4a/	.	p
=9	=9	=9	=9	=9	=9	=9	=9	=9	=9	=9	=9	=9	=9
8r	2b- 2g/	8r	.	p	8r	.	p	2g/	go-	.	2b-^>/	.	.
8d\	.	8D/	Jak	.	8d\	.	.	.	.	.	.	.	.
4e 4c#X\	.	4C#X^>/	go-	.	4e^\	.	.	.	.	.	.	.	.
8d\	8aL 8f/	8D/	-niec	.	8d\	.	.	8f/	-niec	.	8a/	.	.
8r	8a 8f/	8r	.	.	8r	.	.	8f/	le-	.	8a/	.	.
4r	8.g 8.e/	4r	.	.	4r	.	.	8.e/	-ci	.	8.g/	.	.
.	16aJk 16f/	.	.	.	.	.	.	16f/	prze-	.	16a/	.	.
=10	=10	=10	=10	=10	=10	=10	=10	=10	=10	=10	=10	=10	=10
*	*	*	*	*	*	*	*	*	*	*	*	*	*^
8r	2b- 2g/	8r	.	.	8r	.	.	2g/	-de	.	2b-^>/	.	.	.
8d\	.	8D/	prze-	.	8d\	.	.	.	.	.	.	.	.	.
4e 4c#X\	.	4C#X^>/	-de	.	4e^\	.	.	.	.	.	.	.	.	.
8d\	8a 8f/	8D/	mną	.	8d\	.	.	8f/	mną	.	8a/	.	.	.
8dL 8D\	8aL 8f/	8d\	le-	.	8d\	.	.	8f/	le-	.	8a/	.	<	.
!	!	!	!	!	!	!	!	!	!	!	!	!	!	!LO:HP:t=cresc&colon;
8A 8AA\	8cc#X 8g 8e/	8F\	-ci	.	8e\	.	.	8g/	-ci	.	8cc#X\	.	.	<
8B-J 8BB-\	8ddJ 8f 8d/	8G\	wes-	.	8d\	.	.	8f/	wes-	.	8dd\	.	[[	.
*	*	*	*	*	*	*	*	*	*	*	*	*	*v	*v
=11	=11	=11	=11	=11	=11	=11	=11	=11	=11	=11	=11	=11	=11
*	*^	*	*	*	*	*	*	*	*	*	*	*	*
*	*	*	*2\right	*	*	*	*	*	*2\right	*	*	*2\right	*	*
!	!	!	!	!	!	!	!	!LO:HP:b	!	!	!	!	!	!
2G 2GG\	2ee 2b- 2e/	2ryy	(2G\	-tchnie-	.	1e	.	<[	(2b-X\	-tchnie-	.	(2ee\	.	.
2G#X 2GG#X\	4.ee/	2bn 2e\	2G#X\)	.	.	.	.	.	2bn\)	.	.	4.ee\	.	.
.	8dd/	.	.	.	.	.	.	.	.	.	.	8dd\)	.	.
*	*v	*v	*	*	*	*	*	*	*	*	*	*	*	*
=12	=12	=12	=12	=12	=12	=12	=12	=12	=12	=12	=12	=12	=12
*	*	*	*	*	*2\right	*	*	*	*	*	*	*	*
!	!	!	!	!LO:DY:rj	!	!	!LO:DY:rj	!	!	!	!	!	!LO:DY:rj
2.A 2.AA;\	2.cc#X 2.a 2.e;/	2.A;\	-nie....	f	2.e;\	.	f	2.a;/	-nie....	.	2.cc#X;\	.	f
4Gn 4GGn/	4ccn 4b-X 4e/	4Gn\	Ah!	.	4e\	.	.	4b-X\	Ah!	.	4ccn\	.	.
=13	=13	=13	=13	=13	=13	=13	=13	=13	=13	=13	=13	=13	=13
2F 2FF/	2ff 2a 2f\	2F\	Bo-	.	2f\	.	.	2a/	Bo-	.	2ff\	.	.
4F 4FF/	4a 4f/	4F\	-leść	.	4c\	.	.	4f/	-leść	.	4a/	.	.
4B- 4BB-\	4dd 4b- 4f/	4B-\	mię	.	4B-\	.	.	4f/	mię	.	4dd\	.	.
!!LO:LB:g=original
=14	=14	=14	=14	=14	=14	=14	=14	=14	=14	=14	=14	=14	=14
*	*^	*	*	*	*	*	*	*	*	*	*	*	*
4A 4AA\	4.cc/	4f 4c\	(4A\	ści-	.	(4c\	.	.	(4f/	ści-	.	(4.cc\	.	.
4G 4GG\	.	8d\L	4G\)	.	.	8d\L	.	.	8d/L	.	.	.	.	.
.	8b-/	8eJ 8c\	.	.	.	8c\J)	.	.	8e/J)	.	.	8b-\)	.	.
4F 4FF/	4a 4f 4c/	2ryy	4F\	-ga	.	4c\	.	.	4f/	-ga	.	4a/	.	.
!	!	!	!	!	!	!	!	!	!	!	!	!	!	!LO:DY:rj
4A 4AA\	4a [4f 4c/	.	4A\	a	.	4c\	.	.	4f/	a	.	4a/	.	p
=15	=15	=15	=15	=15	=15	=15	=15	=15	=15	=15	=15	=15	=15	=15
2.c 2.C\	2.g/	4f\]	2c\	szczę-	.	2c\	.	.	(4f/	szczę-	.	2g/	.	.
.	.	8e\L	.	.	<	.	.	<	8e/L	.	.	.	.	<
.	.	8d\J	.	.	.	.	.	.	8d/J)	.	.	.	.	.
.	.	4e\	4c\	-ście	.	4c\	.	.	4e/	-ście	.	4g/	.	.
4C\	4cc 4e/	4c\	4C/	u-	[[	4c\	.	[[	4e/	u-	.	4cc\	.	[[
=16	=16	=16	=16	=16	=16	=16	=16	=16	=16	=16	=16	=16	=16	=16
*	*	*^	*	*	*	*	*	*	*	*	*	*	*	*
4D\	2b-/	4.B-\	4f\	(4D\	-cie-	>	(4.B-\	.	>	4f/	-cie-	.	2b-/	.	>
4E\	.	.	4g\	4E\)	.	.	.	.	.	4g/	-ka	.	.	.	.
.	.	8c\	.	.	.	.	8c\)	.	.	.	.	.	.	.	.
8F\	8a 8f 8c/	2ryy	2ryy	8F\	-ka	]	8c\	.	]	8f/	Zmi-	.	8a/	.	]
8FL 8FF/	8aL 8f 8c/	.	.	8F\	Zmi-	<	8c\	.	<	8e/	.	.	8a/	.	<
8E 8EE/	8cc 8g 8c/	.	.	8E\	-łuj	.	8c\	.	.	8g/	-łuj	.	8cc\	.	.
8EJ 8EE/	8ccJ 8g 8c/	.	.	8E\	się	[[	8c\	.	[[	8g/	się	.	8cc\	.	[[
*	*v	*v	*v	*	*	*	*	*	*	*	*	*	*	*	*
=17	=17	=17	=17	=17	=17	=17	=17	=17	=17	=17	=17	=17	=17
!	!	!	!	!LO:DY:rj	!	!	!LO:DY:rj	!	!	!	!	!	!LO:DY:rj
2.D 2.DD/	2ff 2a 2f\	4.D\	szczę-	f	4.d\	.	f	4.f/	szczę-	.	4.ff\	.	f
.	.	8D\	-sny	.	8d\	.	>	8f/	-sny	.	8ff\	.	.
.	4a 4f/	4D\	Du-	>	4d\	.	.	4f/	Du-	.	4a/	.	>
4D-X 4DD-X/	4bn 4f/	4D-X\	-chu	]]	4f\	.	]]	4f/	-chu	.	4bn/	.	]]
!!LO:PB:g=original
=18	=18	=18	=18	=18	=18	=18	=18	=18	=18	=18	=18	=18	=18
!	!	!	!	!	!	!	!	!	!	!	!	!	!LO:DY:rj
1C 1CC	4.cc 4.a 4.f/	4.C/	nie-	.	4.f\	.	.	4.a/	nie-	.	4.cc\	.	p
.	8a 8f 8c/	8C/	-skoń-	.	8c\	.	.	8f/	-skoń-	.	8a/	.	.
.	4g 4f 4c/	2C/	-cze-	.	2c\	.	.	(4f/	-cze-	.	(4g/	.	.
.	4cc 4e 4c/	.	.	.	.	.	.	4e/)	.	.	4cc\)	.	<
=19	=19	=19	=19	=19	=19	=19	=19	=19	=19	=19	=19	=19	=19
*	*	*	*	*	*	*	*	*	*	*	*	*	*^
2F 2FF/	2a 2f 2c/	2F\	-nie	.	2c\	.	.	2f/	-nie	.	2a/	.	.	.
!	!	!	!	!	!	!	!LO:HP:t=crescendo	!	!	!	!	!	!	!LO:HP:t=crescendo
2G 2GG\	2cc#X [>2a 2e/	2G\	Nad	<	2e\	.	<	2a/	Nad	<	2cc#X\	.	.	<
=20	=20	=20	=20	=20	=20	=20	=20	=20	=20	=20	=20	=20	=20	=20
*	*^	*	*	*	*	*	*	*	*	*	*	*	*	*
*	*	*^	*	*	*	*	*	*	*	*	*	*	*	*	*
2F 2FF/	2dd/	2d\	1a]	2F\	łza-	.	2f\	.	.	2a/	łza-	.	2dd\	.	.	.
2C#X 2CC#X/	2ee/	2e\	.	2C#X/	-wą	[[	2e\	.	.	2a/	-wą	[[	2ee\	.	[	.
*	*	*	*	*	*	*	*	*	*	*	*	*	*	*	*v	*v
*	*	*v	*v	*	*	*	*	*	*	*	*	*	*	*	*
=21	=21	=21	=21	=21	=21	=21	=21	=21	=21	=21	=21	=21	=21	=21
!	!	!	!	!	!LO:DY:rj	!	!	!LO:DY:rj	!	!	!LO:DY:rj	!	!	!LO:DY:rj
2D 2DD/	2ff 2a/	2f\	2D\	do-	f	2d\	.	f	2a/	do-	f	2ff\	.	f
2B- 2BB-\	2g#X 2f 2d/	2ryy	4.B-X\	-lą	.	4.d\	.	.	4.f/	-lą	.	4.g#X/	.	.
.	.	.	8B-\	czło-	.	8d\	.	.	8f/	czło-	.	8g#/	.	>
=22	=22	=22	=22	=22	=22	=22	=22	=22	=22	=22	=22	=22	=22	=22
*	*	*	*	*	*	*	*	*	*	*	*	*	*	*^
!	!	!	!	!	!	!	!	!	!	!	!	!	!	!	!LO:HP:t=dim.
[1A [1AA	[1a	2f 2d\	(2A\	-wie-	.	(2d\	.	.	(2f/	-wie-	.	1a	.	.	>
.	.	4e 4c#X\	2AA/)	.	.	4c#X\	.	.	4e/	.	.	.	.	.	.
.	.	4d 4Bn\	.	.	.	4Bn\)	.	.	4d/)	.	.	.	.	]]	.
*	*	*	*	*	*	*	*	*	*	*	*	*	*	*v	*v
*	*v	*v	*	*	*	*	*	*	*	*	*	*	*	*
=23	=23	=23	=23	=23	=23	=23	=23	=23	=23	=23	=23	=23	=23
2.A] 2.AA\]	2.a] 2.e 2.c#/	2.AA/	-ka!	.	2.c#X\	.	.	2.e/	-ka!	.	2.a/	.	.
!	!	!	!	!	!	!	!	!	!	!	!	!	!LO:DY:rj
8.B-\L	(8.b-X/L	8.B-\L	Jęk	.	(8.B-\L	.	.	(8.b-/L	Jęk	.	(8.b-/L	.	f
16A\Jk	16a/Jk)	16A\Jk	.	.	16A\Jk)	.	.	16a/Jk)	.	.	16a/Jk)	.	.
!!LO:LB:g=original
=24	=24	=24	=24	=24	=24	=24	=24	=24	=24	=24	=24	=24	=24
!	!	!	!	!	!	!	!	!	!	!	!LO:TX:a:i:t=a tempo	!	!
2d 2D\	2ff 2a 2f/	4.D\	jak-	.	4.f\	.	.	4.a/	jak-	.	4.ff\	.	.
.	.	8D\	-by	.	8f\	.	.	8a/	-by	.	8ff\	.	.
4A 4AA\	4cc#X 4g 4e/	8.A\	przed	.	8.e\	.	.	8.g/	przed	.	8.cc#X\	.	.
.	.	16A\	lu-	.	16e\	.	.	16g/	lu-	.	16cc#\	.	.
4B- 4BB-\	4dd 4f 4d/	8.B-\	-da-	.	8.d\	.	.	8.f/	-da-	.	8.dd\	.	.
.	.	16B-\	-mi	.	16d\	.	.	16f/	-mi	.	16dd\	.	.
=25	=25	=25	=25	=25	=25	=25	=25	=25	=25	=25	=25	=25	=25
*	*^	*	*	*	*	*	*	*	*	*	*	*	*
2E 2EE/	4.cc/	2g 2c\	2E\	g-	.	2c\	.	.	2g/	go-	.	(4.ccn\	.	.
.	8b-/	.	.	.	.	.	.	.	.	.	.	8b-\)	.	.
4F 4FF/	4a 4f 4c/	2ryy	4F\	-niec	.	4c\	.	.	4f/	-niec	.	4a/	.	.
!	!	!	!	!	!	!	!	!	!	!	!	!	!	!LO:DY:rj
4F 4FF/	4a 4f 4c/	.	(4F\	przed	.	[4c\	.	.	(4f/	przed	.	(>4a/	.	p
*	*v	*v	*	*	*	*	*	*	*	*	*	*	*	*
=26	=26	=26	=26	=26	=26	=26	=26	=26	=26	=26	=26	=26	=26
2.C 2.CC/	2g 2e 2c/	4.C/)	.	.	4.c\]	.	.	4.e/)	.	.	4.g/)	.	.
.	.	8C/	lu-	.	8c\	.	.	8e/	lu-	.	8g/	.	.
.	4a 4f 4c/	4C/	-da-	.	4c\	.	.	4f/	-da-	.	4a/	.	.
4D 4DD/	4f 4d 4A/	4D/	-mi	.	4A\	.	.	4d/	-mi	.	4f/	.	.
=27	=27	=27	=27	=27	=27	=27	=27	=27	=27	=27	=27	=27	=27
*	*^	*	*	*	*	*	*	*	*	*	*	*	*
2.C 2.CC/	4.g/	2e 2c\	2C/	le-	.	2c\	.	.	2e/	le-	.	(4.g/	.	.
.	8cc/	.	.	.	.	.	.	.	.	.	.	8cc\)	.	.
.	4cc/	4e 4c\	4C/	-ci	.	4c\	.	.	4e/	-ci	.	4cc\	.	.
8.C/L	4r	4ryy	8.C/	Mór	.	4r	.	.	4r	.	.	4r	.	.
16C/Jk	.	.	16C/	i	.	.	.	.	.	.	.	.	.	.
*	*v	*v	*	*	*	*	*	*	*	*	*	*	*	*
!!LO:PB:g=original
=28	=28	=28	=28	=28	=28	=28	=28	=28	=28	=28	=28	=28	=28
*^	*	*	*	*	*	*	*	*	*	*	*	*	*
2r	2D-X\	2r	2D-X\	głód	.	2r	.	.	2r	.	.	1r	.	.
4.F/	2D-\	4.a-X/	4.D-\	mór	.	4.F/	.	.	4.a-X/	Mór	.	.	.	.
8A-X/	.	8f/	8D-\	i	.	8A-X/	.	.	8f/	i	.	.	.	.
=29	=29	=29	=29	=29	=29	=29	=29	=29	=29	=29	=29	=29	=29	=29
2c\	2C\	2e/	2C/	głód	.	2c\	.	.	2e/	głud	.	1r	.	.
2r	4.C\	2r	4.C/	sie-	.	2r	.	.	2r	.	.	.	.	.
.	8C\	.	8C/	-dzą	.	.	.	.	.	.	.	.	.	.
=30	=30	=30	=30	=30	=30	=30	=30	=30	=30	=30	=30	=30	=30	=30
*	*	*^	*	*	*	*	*	*	*	*	*	*	*	*
8r	1D-X	8r	2ryy	4.D-X\	na	.	8r	.	.	8r	.	.	8r	.	.
4A-X/	.	4f/	.	.	.	.	4A-X/	.	.	4f/	sie-	.	4f/	.	.
8A-/	.	8f/	.	8D-\	wie-	.	8A-/	.	.	8f/	-dzą	.	8f/	.	<
8A-/L	.	8ffL 8f/	8ryy	4D-\	-rzy-	.	8A-/	.	.	8f/	na	.	8ff\	.	.
16A-/L	.	16f/L	8f\L	.	.	.	(16A-/LL	.	.	8f/	wie-	.	16fLL/	.	.
16G/JJ	.	16g/JJ	.	.	.	.	16G/JJ)	.	.	.	.	.	16gJJ/	.	.
8F/L	.	8a-X/L	8f\	4D-\	-cach	.	8F/	.	.	8f/	-rzy-	.	8a-X/	.	.
8F/J	.	8b-/J	8f\J	.	.	.	8F/	.	.	8f/	-cach	.	8b-/	.	[[
*v	*v	*	*	*	*	*	*	*	*	*	*	*	*	*	*
=31	=31	=31	=31	=31	=31	=31	=31	=31	=31	=31	=31	=31	=31	=31
[2G [>2C\	[2cc/	4f\	2C/	gro-	.	2G/	.	.	(>4f/	gro-	.	2cc\	.	.
.	.	8e\L	.	.	.	.	.	.	8e/L	.	.	.	.	.
.	.	8d\J	.	.	.	.	.	.	8d/J)	.	.	.	.	.
4G] 4C\]	4cc/]	4e\	4C/	-du,	.	4G/	.	.	4e/	-du,	.	8cc\	.	.
.	.	.	.	.	.	.	.	.	.	.	.	8cc\	Zmi-	.
8.c\L	8.ccL 8.g 8.e/	4ryy	4r	.	.	4r	.	.	4r	.	.	8.cc\	-łuj	.
16cJk 16B-X\	16eeJk 16g 16e/	.	.	.	.	.	.	.	.	.	.	16ee\	się	.
!!LO:PB:g=original
=32	=32	=32	=32	=32	=32	=32	=32	=32	=32	=32	=32	=32	=32	=32
2.c 2.A\	2ff 2f\	2ryy	1r	.	.	2r	.	.	1r	.	.	2ff\	Wł[a]d-	.
.	4f/	4f\	.	.	.	8r	.	.	.	.	.	4f/	-cą	.
.	.	.	.	.	.	8F/	Zmi-	.	.	.	.	.	.	.
4B-X 4A-X\	8.fL 8.d/	4ryy	.	.	.	8.F/	-łuj	.	.	.	.	4r	.	.
.	16ddJk 16f/	.	.	.	.	16d\	się	.	.	.	.	.	.	.
*	*v	*v	*	*	*	*	*	*	*	*	*	*	*	*
=33	=33	=33	=33	=33	=33	=33	=33	=33	=33	=33	=33	=33	=33
*^	*	*	*	*	*	*	*	*	*	*	*	*	*
2B-X 2G\	2ryy	(2ee-X 2e-X/	1r	.	.	2e-X\	wład-	.	2r	.	.	1r	.	.
4ryy	4ryy	4e-/)	.	.	.	4E-X/	-co,	.	8r	.	.	.	.	.
.	.	.	.	.	.	.	.	.	8e-X/	Zmi-	.	.	.	.
4A-X/	4G-X\	8.e-L 8.c/	.	.	.	4r	.	.	8.e-/	-łuj	.	.	.	.
.	.	16ccJk 16e- 16c/	.	.	.	.	.	.	16cc\	się	.	.	.	.
*v	*v	*	*	*	*	*	*	*	*	*	*	*	*	*
=34	=34	=34	=34	=34	=34	=34	=34	=34	=34	=34	=34	=34	=34
2.A-X 2.F\	2dd-X 2d-X/	2r	.	.	2r	.	.	2dd-X\	wład-	.	2r	.	.
.	4d-/	4r	.	.	4r	.	.	4d-X/	-co,	.	4r	.	.
8r	8r	8r	.	.	8r	.	.	8r	.	.	8r	.	.
8d-X 8A-X 8F\	8dd-X 8a-X 8f/	8F\	po	.	8A-X\	.	.	8d-/	po	.	8dd-X\	po	.
=35	=35	=35	=35	=35	=35	=35	=35	=35	=35	=35	=35	=35	=35
2.dn 2.An 2.F#X\	(16ddn/LL	2F#X\	woj-	.	2An\	.	.	2dn/	woj-	.	2ddn\	woj-	.
.	16an/	.	.	.	.	.	.	.	.	.	.	.	.
.	16f#X/	.	.	.	.	.	.	.	.	.	.	.	.
.	16a/JJ	.	.	.	.	.	.	.	.	.	.	.	.
!	!	!	!	!LO:HP:t=cresc&colon;	!	!	!	!	!	!	!	!	!LO:HP:t=cresc&colon;
.	16dd/LL	.	.	<	.	.	.	.	.	.	.	.	<
.	16a/	.	.	.	.	.	.	.	.	.	.	.	.
.	16f#/	.	.	.	.	.	.	.	.	.	.	.	.
.	16a/JJ)	.	.	.	.	.	.	.	.	.	.	.	.
.	4dd\	4F#\	-nach	.	4A\	.	.	4d/	-nach	.	4dd\	-nach	.
8r	8r	8r	.	.	8r	.	.	8r	.	.	8r	.	.
8d 8A 8F#\	8dd 8a 8f#/	8F#\	stu-	.	8A\	.	.	8d/	stu-	.	8dd\	stu	.
!!LO:PB:g=original
=36	=36	=36	=36	=36	=36	=36	=36	=36	=36	=36	=36	=36	=36
2.e-X 2.B-X 2.G\	(<16ee-X/LL	2G\	-le-	.	2B-X\	.	.	2e-X/	-le-	.	2ee-X\	.	.
.	16b-X/	.	.	.	.	.	.	.	.	.	.	.	.
.	16g/	.	.	.	.	.	.	.	.	.	.	.	.
.	16b-/JJ	.	.	.	.	.	.	.	.	.	.	.	.
.	16ee-/LL	.	.	.	.	.	.	.	.	.	.	.	.
.	16b-/	.	.	.	.	.	.	.	.	.	.	.	.
.	16g/	.	.	.	.	.	.	.	.	.	.	.	.
.	16b-/JJ	.	.	.	.	.	.	.	.	.	.	.	.
.	4ee-\)	4G\	-ci	.	4B-\	.	.	4e-/	-ci	.	4ee-\	.	.
4en 4B- 4G\	4een 4b- 4g\	4G\	Nad	.	4B-\	.	.	4en/	Nad	.	4een\	.	.
=37	=37	=37	=37	=37	=37	=37	=37	=37	=37	=37	=37	=37	=37
!	!	!	!	!LO:DY:rj	!	!	!LO:DY:rj	!	!	!	!	!	!LO:DY:rj
4.d 4.A\	4.ff 4.a 4.f\	4.A\	przez-	f	4.d\	.	f	4.f/	prze-	.	4.ff\	.	f
8F 8FF/	8ff 8f\	8F\	-na-	.	8f\	.	.	8f/	-zna-	.	8ff\	.	.
4E 4EE/	4ee 4e/	4E\	-cze-	.	4e\	.	.	4e/	-cze-	.	4ee\	.	.
8.DL 8.DD/	8.ddL 8.d/	8.D\	-niem	.	8.d\	.	.	8.d/	-niem	.	8.dd\	.	.
16BB-Jk 16BBB-/	16b-Jk 16B-/	16B-\	na-	.	16B-\	.	.	16b-/	na-	.	16b-\	.	.
=38	=38	=38	=38	=38	=38	=38	=38	=38	=38	=38	=38	=38	=38
4AA 4AAA/	2.a 2.A/	(2.A\	-ro-	.	(2.A\	.	.	(2.a/	-ro-	.	(2.a/	.	.
8D\L	.	.	.	.	.	.	.	.	.	.	.	.	.
8F\J	.	.	.	.	.	.	.	.	.	.	.	.	.
4AA/	.	.	.	.	.	.	.	.	.	.	.	.	.
4A 4AA\	4cc#X 4g 4e/	4AA/)	.	.	4e\)	.	.	4g/)	.	.	4cc#X\)	.	.
=39	=39	=39	=39	=39	=39	=39	=39	=39	=39	=39	=39	=39	=39
2B- 2BB-\	2dd 2f 2d/	2BB-/	-dów	.	2d\	.	.	2f/	-dów	.	2dd\	.	.
!	!	!	!	!	!	!	!LO:DY:rj	!	!	!	!	!	!LO:DY:rj
4G\	4g/	4G\	Nad	.	4G/	.	p	4g/	Nad	.	4g/	.	p
8.A\L	8.a/L	8.A\	przez-	.	8.A/	.	.	8.a/	przez-	.	8.a/	.	.
16B-\Jk	16b-/Jk	16B-\	-na-	.	16B-/	.	.	16b-/	-na-	.	16b-/	.	.
!!LO:LB:g=original
=40	=40	=40	=40	=40	=40	=40	=40	=40	=40	=40	=40	=40	=40
4A\	4a/	4A\	-cze-	.	4A/	.	.	4a/	-cze-	.	4a/	.	.
8.G\L	8.g/L	8.G\	-niem	.	8.G/	.	.	8.g/	-niem	.	8.g/	.	.
16F\Jk	16f/Jk	16F\	na-	.	16F/	.	.	16f/	na-	.	16f/	.	.
4E\	4e/	(4E\	-ro-	.	(4E/	.	.	(4e/	-ro-	.	(4e/	.	.
4A\	4a/	4A\)	.	.	4A/)	.	.	4a/)	.	.	4a/)	.	.
=41	=41	=41	=41	=41	=41	=41	=41	=41	=41	=41	=41	=41	=41
4D\	4d/	4D\	-dów	.	4D/	.	.	4d/	-dów	.	4d/	.	.
2d 2A 2D\	2dd 2a 2f#X/	4r	.	.	4r	.	.	4r	.	.	4r	.	.
.	.	2r	.	.	2r	.	.	2r	.	.	2r	.	.
4d 4A 4D\	4dd 4a 4f#/	.	.	.	.	.	.	.	.	.	.	.	.
=42	=42	=42	=42	=42	=42	=42	=42	=42	=42	=42	=42	=42	=42
2.d 2.A 2.D\	(2ff#X 2dd 2a\	2r	.	.	1r	.	.	2r	.	.	2r	.	.
.	4dd 4a 4f#X/)	4r	.	.	.	.	.	4r	.	.	4r	.	.
!	!	!	!	!	!	!	!	!	!	!	!	!	!LO:DY:rj
4c\	4f# 4d/	8.c\	Zim-	.	.	.	.	8.d/	Zim-	.	8.f#X/	.	p
.	.	16c\	-ny	.	.	.	.	16d/	-ny	.	16f#/	.	.
=43	=43	=43	=43	=43	=43	=43	=43	=43	=43	=43	=43	=43	=43
*	*^	*	*	*	*	*	*	*	*	*	*	*	*
4B-\	4g 4d/	2ryy	4B-\	dreszcz	.	8r	.	.	4d/	dreszcz	.	4g/	.	.
.	.	.	.	.	.	4d\	Zim-	.	.	.	.	.	.	.
2A\	2cc 2f#X 2d/	.	2A\	zie-	.	.	.	.	2f#X/	zie-	.	2cc\	.	.
.	.	.	.	.	.	8d\	-ny	.	.	.	.	.	.	.
.	.	4ryy	.	.	.	8d\	dreszcz	.	.	.	.	.	.	.
.	.	.	.	.	.	8d\	zie-	.	.	.	.	.	.	.
8G\L	8b-L 8g/	4d\	8G\	-mię	.	8d\	-mię	.	8g/	-mię	.	8b-\	.	.
8D\J	8aJ 8f#/	.	8D\	o-	.	8d\	o-	.	8f#/	o-	.	8a\	.	.
*	*v	*v	*	*	*	*	*	*	*	*	*	*	*	*
!!LO:PB:g=original
=44	=44	=44	=44	=44	=44	=44	=44	=44	=44	=44	=44	=44	=44
2.E-X\	2.g 2.B-X/	2E-X\	-bla-	.	2B-X\	.	.	2g/	-bla-	.	2g/	.	.
.	.	4E-\	-ta	.	4B-\	.	.	4g/	-ta	.	4g/	.	.
4C\	4a 4e-X 4c/	4C/	jak	.	4c\	.	.	4e-X/	jak	.	4a/	.	.
=45	=45	=45	=45	=45	=45	=45	=45	=45	=45	=45	=45	=45	=45
2.D\	2.f#X 2.d 2.A/	2D\	go-	.	2A\	.	.	2d/	go-	.	2f#X/	.	.
.	.	8D\	-niec	.	8A\	.	.	8d/	-niec	.	8f#/	.	.
.	.	8r	.	.	8r	.	.	8r	.	.	8r	.	.
!	!	!	!	!LO:DY:rj	!	!	!	!	!	!	!	!	!LO:DY:rj
4C/	4f# 4e-X 4A/	4C/	Śmierć	f	4A\	.	.	4e-X/	Smierć	.	4f#/	.	f
=46	=46	=46	=46	=46	=46	=46	=46	=46	=46	=46	=46	=46	=46
2BB-/	2g 2d 2G/	2BB-/	i	.	2d\	.	.	2d/	i	.	2g/	.	.
2F#X\	2a 2d/	2F#X\	ciem-	.	2d\	.	.	2d/	ciem-	.	2a/	.	.
=47	=47	=47	=47	=47	=47	=47	=47	=47	=47	=47	=47	=47	=47
*	*^	*	*	*	*	*	*	*	*	*	*	*	*
2G\	2b-/	1d	2G\	-no-	.	2d\	.	.	2d/	-no-	.	2b-/	.	.
4Fn\	4a/	.	4Fn\	-ta	.	4d\	.	.	4d/	-ta	.	4a/	.	.
4F\	4a/	.	(4F\	pro-	.	(4d\	.	.	(4d/	pro-	.	(>4a/	.	.
!!LO:LB:g=original
=48	=48	=48	=48	=48	=48	=48	=48	=48	=48	=48	=48	=48	=48	=48
2..E\	4a/	2d 2Bn\	8E\)	.	.	8Bn\)	.	.	8d/)	.	.	8a/)	.	.
.	.	.	8E\	-gów	.	8B\	.	.	8d/	-gów	.	8a/	.	.
.	8g#X/L	.	8E\	świa-	.	8B\	.	.	8d/	świa-	.	8g#X/	.	.
.	8f#X/J	.	8E\	-tła	.	8B\	.	.	8d/	-tła	.	8f#X/	.	.
.	4.g#/	4.d 4.B\	(4.E\	strze-	.	(4.B\	.	.	(4.d/	strze-	.	(4.g#/	.	.
8A 8AA\	8a 8c#X/	8ryy	8A\)	.	.	8A\)	.	.	8c#X/)	.	.	8a/)	.	.
*	*v	*v	*	*	*	*	*	*	*	*	*	*	*	*
=49	=49	=49	=49	=49	=49	=49	=49	=49	=49	=49	=49	=49	=49
8AL 8AA\	8aL 8c#X/	2A\	-gą.	.	2A\	.	.	2c#X/	-gą.	.	2a/	.	.
8A\	8a/	.	.	.	.	.	.	.	.	.	.	.	.
8E\	8e/	.	.	.	.	.	.	.	.	.	.	.	.
8C#X\J	8c#/J	.	.	.	.	.	.	.	.	.	.	.	.
4AA/	8A/L	8r	.	.	8r	.	.	8r	.	.	8r	.	.
!	!	!LO:N:vis=16	!	!	!	!	!	!	!	!	!	!	!
.	[>8a/J	8A\	Zmi-	.	8A\	.	f	8a/	Zmi-	.	8a/	.	f
8.AL 8.AA/	8.a/L]	8.A\	-łuj	.	8.A\	.	.	8.a/	-łuj	.	8.a/	.	.
16GJk 16GG/	16cc#XJk 16a 16e/	16G\	się	.	16e\	.	.	16a/	się	.	16cc#X\	.	.
=50	=50	=50	=50	=50	=50	=50	=50	=50	=50	=50	=50	=50	=50
*	*^	*	*	*	*	*	*	*	*	*	*	*	*
4.F 4.FF/	4.dd 4.a 4.d/	2ryy	4F\	Oj-	.	4d\	.	.	4a/	Oj-	.	4dd\	.	.
.	.	.	8F\	-cze	.	8d\	.	.	8a/	-cze	.	8dd\	.	.
8r	8r	.	8r	.	.	8r	.	.	8r	.	.	8r	.	>
4F 4FF/	[4dd/	2a 2d\	8.F\	Zmi-	.	8.d\	.	.	8.a/	Zmi-	.	8.dd\	.	.
.	.	.	16F\	-łuj	.	16d\	.	.	16a/	-łuj	.	16dd\	.	.
4F#X 4FF#X/	8.dd/L]	.	8.F#X\	się	.	8.d\	.	.	8.a/	się	.	8.dd\	.	.
.	16cc/Jk	.	16F#\	na	.	16d\	.	.	16a/	na	.	16cc\	.	]]
*	*v	*v	*	*	*	*	*	*	*	*	*	*	*	*
!!LO:PB:g=original
=51	=51	=51	=51	=51	=51	=51	=51	=51	=51	=51	=51	=51	=51
!	!	!	!	!	!	!	!	!	!	!	!	!	!LO:DY:rj
2G 2GG\	2b- 2g 2d/	2G\	ko-	.	2d\	.	.	2g/	Ko-	.	2b-/	.	p
4A 4AA\	4a 4f 4d/	4A\	-niec,	.	4d\	.	.	4f/	-niec,	.	4a/	.	.
4B- 4BB-\	4g#X 4f 4d/	4B-X\	Nad	.	4d\	.	.	4f/	Nad	.	4g#X/	.	.
=52	=52	=52	=52	=52	=52	=52	=52	=52	=52	=52	=52	=52	=52
*	*^	*	*	*	*	*	*	*	*	*	*	*	*
1A 1AA	4a/	2f\	4A\	lo-	.	4d\	.	.	4f/	lo-	.	4a/	.	.
.	2dd/	.	4A\	-sem	.	4d\	.	.	4f/	-sem	.	4dd\	.	.
.	.	4.e\	4A\	ro-	.	4e\	.	.	4e/	ro-	.	4dd\	.	.
.	4cc#X/	.	8AA/	-du	.	8e\	.	.	8e/	-du	.	8cc#X\	.	.
.	.	8g\	8AA/	lu-	.	8e\	.	.	8g/	lu-	.	8cc#\	.	.
=53	=53	=53	=53	=53	=53	=53	=53	=53	=53	=53	=53	=53	=53	=53
2.B- 2.BB-\	2.dd 2.f 2.d/	1r	2BB-/	-dzkie-	<	2d\	.	<	2f/	-dzkie-	.	2dd\	.	<
.	.	.	4BB-/	-go	.	4d\	.	.	4f/	-go	.	4dd\	.	.
4G 4GG/	4ee 4dd 4b-X\	.	4GG/	Nad	[[	4B-X\	.	[[	4b-X/	Nad	.	4ee\	.	[[
*	*v	*v	*	*	*	*	*	*	*	*	*	*	*	*
=54	=54	=54	=54	=54	=54	=54	=54	=54	=54	=54	=54	=54	=54
!	!	!	!	!LO:DY:rj	!	!	!LO:DY:rj	!	!	!	!	!	!LO:DY:rj
2A 2AA\	1ff 1dd 1a	2AA/	lo-	f	2d\	.	f	2a/	lo-	.	2ff\	.	f
(4D\	.	(4D\	-sem	.	2d\	.	.	2a/	-sem	.	2ff\	.	.
4F\)	.	4F\)	.	.	.	.	.	.	.	.	.	.	.
!!LO:LB:g=original
=55	=55	=55	=55	=55	=55	=55	=55	=55	=55	=55	=55	=55	=55
*	*^	*	*	*	*	*	*	*	*	*	*	*	*
4G\	2ee 2dd/	4b-\	4G\	ro-	.	4d\	.	.	4b-/	ro-	.	4ee\	.	.
8.A\L	.	8.a\L	8.A\	-du	.	8.d\	.	.	8.a/	-du	.	8.ee\	.	.
16B-\Jk	.	16g\Jk	16B-\	ludz-	.	16d\	.	.	16g/	ludz-	.	16ee\	.	.
4A\	2aa 2cc#X 2a\	2ryy	(4A\	-kie-	.	2c#X\	.	.	2a/	-kie-	.	2aa\	.	.
4AA/	.	.	4AA/)	.	.	.	.	.	.	.	.	.	.	.
*	*v	*v	*	*	*	*	*	*	*	*	*	*	*	*
=56	=56	=56	=56	=56	=56	=56	=56	=56	=56	=56	=56	=56	=56
4D\	4dd\	4D\	-go!	.	4d\	.	.	4d/	-go!	.	4dd\	.	.
4r	4r	2d\	Ky-	.	2d\	.	.	2dd\	Ky-	.	2dd\	.	.
2r	2r	.	.	.	.	.	.	.	.	.	.	.	.
.	.	4F\	-ri-	.	4F/	.	.	4f/	-ri-	.	4f/	.	.
=57	=57	=57	=57	=57	=57	=57	=57	=57	=57	=57	=57	=57	=57
1ryy	1ryy	2G\	-e	.	2G/	.	.	2g/	-e	.	2g/	.	.
.	.	2B-\	e-	.	2B-\	.	.	2b-/	e-	.	2b-/	.	.
=58	=58	=58	=58	=58	=58	=58	=58	=58	=58	=58	=58	=58	=58
1ryy	1ryy	(4A\	-le-	.	(4A\	.	.	(>4a/	-le-	.	(>4a/	.	.
.	.	8G\L	.	.	8G/L	.	.	8g/L	.	.	8g/L	.	.
.	.	8F\J	.	.	8F/J	.	.	8f/J	.	.	8f/J	.	.
.	.	4E\)	.	.	4E/)	.	.	4e/)	.	.	4e/)	.	.
.	.	4A\	-i-	.	4A\	.	.	4a/	-i-	.	4a/	.	.
!!LO:PB:g=original
=59	=59	=59	=59	=59	=59	=59	=59	=59	=59	=59	=59	=59	=59
2r	2r	2.D\	-son	.	2.D/	.	.	2.d/	-son	.	2.d/	.	.
4r	4r	.	.	.	.	.	.	.	.	.	.	.	.
!	!	!	!	!LO:DY:rj	!	!	!LO:DY:rj	!	!	!	!	!	!LO:DY:rj
4D 4DD/	4f#X 4d 4c/	4D\	e-	p	4c\	.	p	4d/	e-	.	4f#X/	.	p
=60	=60	=60	=60	=60	=60	=60	=60	=60	=60	=60	=60	=60	=60
*	*^	*	*	*	*	*	*	*	*	*	*	*	*
[1D [1DD	2.g 2.B-/	1d	[1D	-le-	.	(2.B-\	.	.	[1d	-le-	.	(2.g/	.	.
!	!	!	!	!	!LO:HP:b	!	!	!LO:HP:b	!	!	!	!	!	!
.	4f#X 4A/	.	.	.	<	4A\	.	<	.	.	.	4f#X/	.	<
=61	=61	=61	=61	=61	=61	=61	=61	=61	=61	=61	=61	=61	=61	=61
1D] 1DD]	4g 4B-/	2.d/	2.D\]	.	.	4B-\	.	.	2.d/]	.	.	4g/	.	.
.	4f#X 4A/	.	.	.	.	4A\	.	.	.	.	.	4f#X/	.	.
.	4g 4B-/	.	.	.	.	4B-\	.	.	.	.	.	4g/	.	.
.	4b- 4g/	4ryy	4D\	-i-	[[	4G/)	.	[[	4g/	-i-	.	4b-/	.	[[
*	*v	*v	*	*	*	*	*	*	*	*	*	*	*	*
=62	=62	=62	=62	=62	=62	=62	=62	=62	=62	=62	=62	=62	=62
!	!	!	!	!LO:DY:rj	!	!	!LO:DY:rj	!	!	!	!	!	!LO:DY:rj
[1D [1DD	[1dd [>1f#X [1d	[1D	-son.	f	[1A	.	f	[1f#X	-son.	.	[1dd)	.	f
=63	=63	=63	=63	=63	=63	=63	=63	=63	=63	=63	=63	=63	=63
1D] 1DD]	4dd] 4f#] 4d/]	4D\]	.	.	4A\]	.	.	4f#/]	.	.	4dd\]	.	.
.	2ee-X 2b-X 2g/	4r	.	.	4r	.	.	4r	.	.	4r	.	.
.	.	2r	.	.	2r	.	.	2r	.	.	2r	.	.
.	4dd 4a 4f#X/	.	.	.	.	.	.	.	.	.	.	.	.
!!LO:LB:g=original
=64	=64	=64	=64	=64	=64	=64	=64	=64	=64	=64	=64	=64	=64
1D 1DD	4r	1r	.	.	1r	.	.	1r	.	.	1r	.	.
.	2cc 2g 2e-X/	.	.	.	.	.	.	.	.	.	.	.	.
.	4b- 4g 4d/	.	.	.	.	.	.	.	.	.	.	.	.
=65	=65	=65	=65	=65	=65	=65	=65	=65	=65	=65	=65	=65	=65
*^	*	*	*	*	*	*	*	*	*	*	*	*	*
4B-/	1D	(>4g/	1r	.	.	1r	.	.	1r	.	.	1r	.	.
4A/	.	4f#X/	.	.	.	.	.	.	.	.	.	.	.	.
[4B-/	.	4g/	.	.	.	.	.	.	.	.	.	.	.	.
4B-] 4G/	.	4en/	.	.	.	.	.	.	.	.	.	.	.	.
*v	*v	*	*	*	*	*	*	*	*	*	*	*	*	*
=66	=66	=66	=66	=66	=66	=66	=66	=66	=66	=66	=66	=66	=66
1A 1D	1f#X 1d;)	1r;	.	.	1r;	.	.	1r;	.	.	1r;	.	.
==	==	==	==	==	==	==	==	==	==	==	==	==	==
*-	*-	*-	*-	*-	*-	*-	*-	*-	*-	*-	*-	*-	*-
!!!system-decoration: {s1,s2,s3,s4}{(s5,s6)}
!!!RDF**kern: > = above
!!!RDF**kern: < = below
!!!ENC: Marta Lawrence
!!!END: 2021-06-14
!!!ENC: Andrzej Gręziak
!!!END: 2021-06-05
